src/assets/svg/user-icon.svg

<svg width="23" height="26" viewBox="0 0 23 26" fill="none" xmlns="http://www.w3.org/2000/svg">
<path fill-rule="evenodd" clip-rule="evenodd" d="M20.4444 24.6119V22.0564C20.4444 19.9388 18.7282 18.223 16.6111 18.223H6.38889C4.27179 18.223 2.55556 19.9388 2.55556 22.0564V24.6119C2.55556 25.0686 2.31199 25.4904 1.91667 25.7187C1.52134 25.9471 1.03422 25.9471 0.638889 25.7187C0.243561 25.4904 0 25.0686 0 24.6119V22.0564C0 18.5275 2.86042 15.6675 6.38889 15.6675H16.6111C20.1396 15.6675 23 18.5275 23 22.0564V24.6119C23 25.0686 22.7564 25.4904 22.3611 25.7187C21.9658 25.9471 21.4787 25.9471 21.0833 25.7187C20.688 25.4904 20.4444 25.0686 20.4444 24.6119ZM5.11073 6.72287C5.11073 3.19401 7.97114 0.333984 11.4996 0.333984C15.0281 0.333984 17.8885 3.19401 17.8885 6.72287C17.8885 10.2517 15.0282 13.1118 11.4996 13.1118C7.97114 13.1118 5.11073 10.2517 5.11073 6.72287ZM7.66782 6.72311C7.66782 8.84068 9.38405 10.5564 11.5012 10.5564C13.6183 10.5564 15.3345 8.84068 15.3345 6.72311C15.3345 4.60555 13.6183 2.88978 11.5012 2.88978C9.38405 2.88978 7.66782 4.60555 7.66782 6.72311Z" fill="#141416" fill-opacity="0.5"/>
</svg>

<svg xmlns="http://www.w3.org/2000/svg" width="23" height="26" fill="none"><path fill="#141416" fill-opacity=".5" fill-rule="evenodd" d="M20.444 24.612v-2.556a3.833 3.833 0 0 0-3.833-3.833H6.39a3.833 3.833 0 0 0-3.833 3.833v2.556a1.278 1.278 0 1 1-2.556 0v-2.556a6.39 6.39 0 0 1 6.389-6.389h10.22A6.39 6.39 0 0 1 23 22.058v2.555a1.278 1.278 0 1 1-2.556 0M5.111 6.722a6.389 6.389 0 1 1 12.777 0 6.389 6.389 0 0 1-12.777 0m2.557.001a3.833 3.833 0 1 0 7.666 0 3.833 3.833 0 0 0-7.666 0" clip-rule="evenodd"/></svg>
